X:45
T:Off to California
Z: id:dc-hornpipe-41
M:C|
L:1/8
K:G Major
(3DEF|GFGB AGED|GBdg e2 (3def|gfgd edBG|ABAG E2 (3DEF|!
GFGB AGED|GBdg e2 (3def|gfgd edBG|ABAF G2:|!
(3def|gfeg fedf|edef edBd|gfgd edBG|ABAG E2 (3DEF|!
GFGB AGED|GBdg e2 (3def|gfgd edBG|ABAF G2:|!

